X: 2
T: The Acrobat
R: hornpipe
M: 4/4
L: 1/8
K: Gmaj
D>C|B,>DG>A B>Ge>d|(3cAF (3cAF f3e|d>^c=c>A F>fe>d|^c>de>d B>GD>C|B,>DG>
A B>Ge>d|(3cAF (3cAF f3e|d>^c=c>A F>fe>F|G2B2G2::
A>G|F>AB>A f>dc>d|B>GB>e g>e^d>e|c>A^GA ^A>Bc>^c|(3edc (3edc A2A>G|
F>AB>A f>dc>d|B>GB>e g>e^d>e|c>A^G>A ^A>Bc>^c|d2f2d2:|


Tune 3459	Setting 16500

